64x64/apps/deepin-clone.svg

<svg xmlns="http://www.w3.org/2000/svg" width="64" height="64" version="1">
 <rect style="fill:#5db43e" width="52" height="52" x="-58" y="-58" rx="26" ry="26" transform="matrix(0,-1,-1,0,0,0)"/>
 <path style="opacity:0.2;fill:#f4f4f7" d="M 32 6 C 17.596222 6 6 17.596222 6 32 C 6 32.11092 6.0116051 32.218793 6.0175781 32.328125 C 6.3726906 18.238364 17.821617 7 32 7 C 46.178383 7 57.627309 18.238364 57.982422 32.328125 C 57.988345 32.218793 58 32.11092 58 32 C 58 17.596222 46.403778 6 32 6 z"/>
 <path style="opacity:0.2" d="M 6.0175781,32.671875 C 6.011605,32.781207 6,32.88908 6,33 6,47.403779 17.596001,59 32,59 46.404,59 58,47.403779 58,33 58,32.88908 57.988345,32.781207 57.982422,32.671875 57.627304,46.761637 46.178602,58 32,58 17.821399,58 6.3726961,46.761637 6.0175781,32.671875 Z"/>
 <path style="opacity:0.2" d="m 32.001953,14.999145 c -1.682106,-0.0174 -3.352506,0.231581 -4.974609,0.675781 -7.553475,2.0262 -13.081404,9.502172 -12.966797,17.326172 l -4.060547,0 c 2.069963,3.043664 6,8.998047 6,8.998047 0,0 6,-9.000953 6,-9.001953 l -3.917969,0 c -0.0144,-3.2766 1.215348,-6.571578 3.396485,-9.017578 4.099458,-4.9288 11.522763,-6.980569 17.232422,-2.792969 1.809993,2.3692 5.757599,-0.319189 3.720703,-2.662109 -3.000188,-2.33646 -6.64185,-3.517391 -10.429688,-3.525391 z m 15.998047,9 c 0,0 -6,8.999 -6,9 l 3.917969,0 c 0.0144,3.2766 -1.215348,6.573531 -3.396485,9.019531 -4.099458,4.9288 -11.522762,6.980569 -17.232422,2.792969 -1.809993,-2.3692 -5.757599,0.319189 -3.720703,2.662109 3.000188,2.33646 6.64185,3.517391 10.429688,3.525391 1.682106,0.0174 3.352506,-0.231581 4.974609,-0.675781 7.553475,-2.0262 13.081404,-9.502172 12.966797,-17.326172 l 4.060547,0 c -2.069963,-3.043664 -6,-8.998047 -6,-8.998047 z"/>
 <path style="fill:#f4f4f7" d="m 32.001953,14 c -1.682106,-0.0174 -3.352506,0.231581 -4.974609,0.675781 -7.553475,2.0262 -13.081404,9.502172 -12.966797,17.326172 l -4.060547,0 C 12.069963,35.045617 16,41 16,41 c 0,0 6,-9.000953 6,-9.001953 l -3.917969,0 c -0.0144,-3.2766 1.215348,-6.571578 3.396485,-9.017578 4.099458,-4.9288 11.522763,-6.980569 17.232422,-2.792969 1.809993,2.3692 5.757599,-0.319189 3.720703,-2.662109 C 39.431453,15.188931 35.789791,14.008 32.001953,14 Z M 48,23 c 0,0 -6,8.999 -6,9 l 3.917969,0 c 0.0144,3.2766 -1.215348,6.573531 -3.396485,9.019531 -4.099458,4.9288 -11.522762,6.980569 -17.232422,2.792969 -1.809993,-2.3692 -5.757599,0.319189 -3.720703,2.662109 3.000188,2.33646 6.64185,3.517391 10.429688,3.525391 1.682106,0.0174 3.352506,-0.231581 4.974609,-0.675781 7.553475,-2.0262 13.081404,-9.502172 12.966797,-17.326172 l 4.060547,0 C 51.930037,28.954383 48,23 48,23 Z"/>
</svg>

<svg xmlns="http://www.w3.org/2000/svg" width="64" height="64" version="1"><rect style="fill:#5db43e" width="52" height="52" x="-58" y="-58" rx="26" ry="26" transform="matrix(0 -1 -1 0 0 0)"/><path style="opacity:.2;fill:#f4f4f7" d="M32 6C17.596 6 6 17.596 6 32c0 .11.012.219.018.328C6.373 18.238 17.822 7 32 7c14.178 0 25.627 11.238 25.982 25.328.006-.11.018-.217.018-.328C58 17.596 46.404 6 32 6z"/><path style="opacity:.2" d="M6.018 32.672c-.006.11-.018.217-.018.328 0 14.404 11.596 26 26 26s26-11.596 26-26c0-.11-.012-.219-.018-.328C57.627 46.762 46.18 58 32 58 17.821 58 6.373 46.762 6.018 32.672z"/><path style="opacity:.2" d="M32.002 15c-1.682-.018-3.353.23-4.975.675C19.474 17.7 13.946 25.177 14.061 33H10C12.07 36.045 16 42 16 42s6-9 6-9.002h-3.918c-.014-3.276 1.215-6.571 3.397-9.017C25.578 19.05 33 16.999 38.71 21.187c1.81 2.369 5.758-.32 3.72-2.662-3-2.337-6.641-3.518-10.429-3.526zM48 24s-6 8.998-6 9h3.918c.014 3.276-1.215 6.573-3.397 9.019-4.099 4.928-11.522 6.98-17.232 2.793-1.81-2.37-5.758.319-3.72 2.662 3 2.336 6.641 3.517 10.429 3.525 1.682.018 3.353-.231 4.975-.676 7.553-2.026 13.081-9.502 12.966-17.326H54C51.93 29.954 48 24 48 24z"/><path style="fill:#f4f4f7" d="M32.002 14c-1.682-.017-3.353.232-4.975.676-7.553 2.026-13.081 9.502-12.966 17.326H10C12.07 35.046 16 41 16 41l6-9.002h-3.918c-.014-3.277 1.215-6.572 3.397-9.018C25.578 18.052 33 16 38.71 20.187c1.81 2.37 5.758-.319 3.72-2.662-3-2.336-6.641-3.517-10.429-3.525zM48 23l-6 9h3.918c.014 3.277-1.215 6.574-3.397 9.02C38.422 45.948 31 48 25.29 43.812c-1.81-2.369-5.758.32-3.72 2.663 3 2.336 6.641 3.517 10.429 3.525 1.682.017 3.353-.232 4.975-.676 7.553-2.026 13.081-9.502 12.966-17.326H54C51.93 28.954 48 23 48 23z"/></svg>
